; HEADER_BLOCK_START
; generated by OrcaSlicer 2.0.0 on 2024-06-01 at 10:27:31
; total layer number: 19
; filament_density: 1.24,1.24
; filament_diameter: 1.75,1.75
; max_z_height: 3.80
; HEADER_BLOCK_END

; THUMBNAIL_BLOCK_START

;
; THUMBNAIL_BLOCK_END

; external perimeters extrusion width = 0.40mm
; perimeters extrusion width = 0.45mm
; infill extrusion width = 0.45mm
; solid infill extrusion width = 0.40mm
; top infill extrusion width = 0.40mm
; first layer extrusion width = 0.50mm

; EXECUTABLE_BLOCK_START
EXCLUDE_OBJECT_DEFINE NAME=SC_BASE_id_0_copy_0 CENTER=117.5,117.5 POLYGON=[[74,115.5],[96.713,107.944],[98.17,107.612],[99.66,107.5],[151,107.5],[152.564,107.623],[154.09,107.989],[155.54,108.59],[156.878,109.41],[158.071,110.429],[159.09,111.622],[159.91,112.96],[160.511,114.41],[160.877,115.936],[161,117.5],[160.877,119.064],[160.511,120.59],[159.91,122.04],[159.09,123.378],[158.071,124.571],[156.878,125.59],[155.54,126.41],[154.09,127.011],[152.564,127.377],[151,127.5],[99.66,127.5],[98.17,127.388],[96.713,127.056],[74,120.5],[74,115.5]]
M73 P0 R14
;TYPE:Custom
START_PRINT
G90 ; use absolute coordinates
M83 ; extruder relative mode
M140 S40 ; set final bed temp
M104 S180 ; set temporary nozzle temp to prevent oozing during homing

G28 ; home all axis

G29 ; CR-Touch
G1 Z2 F3000 
G1 X0 Y235 F3000

M104 S200 ; set final nozzle temp
M190 S40 ; wait for bed temp to stabilize
M109 S200 ; wait for nozzle temp to stabilize
G1 Z0.28 F240
G92 E0
G1 E1 F1200
;G1 E-1 F1200
G1 X2 F3000
G92 E0
G1 Y70 E5 F1500 ; prime the noozle
G1 X2 F5000
G92 E0
M73 P1 R14
G1 Y10 E5 F1500
G1 X4 F5000
G92 E0
G1 Y70 E5 F1500
G1 X6 F5000
G92 E0
G1 Y10 E5 F1200
;G1 E-0.4 F1500
G92 E0
G1 Z2.0 F1500 ; Move Z Axis up little to prevent scratching of Heat Bed
M73 P2 R14
G1 X8 Y20 Z0.3 F5000.0 ; Move over to prevent blob squish
G92 E0
G90
G21
M83 ; use relative distances for extrusion
M600
;_FORCE_RESUME_FAN_SPEED
T0
M104 S200 ; set nozzle temperature
; filament start gcode
SET_PRESSURE_ADVANCE ADVANCE=0.34; Override pressure advance value
M106 S0
;LAYER_CHANGE
;Z:0.2
;HEIGHT:0.2
;BEFORE_LAYER_CHANGE
;0.2
G92 E0

G1 E-4.2 F3600
;AFTER_LAYER_CHANGE
;0.2
;_SET_FAN_SPEED_CHANGING_LAYER
G1 X71.78 Y110.119 F3000
G1 Z.4
G1 Z.2
G1 E4.2 F3600
;TYPE:Skirt
;WIDTH:0.5
G1 F3000
G1 X72.133 Y109.888 E.01571
G1 X95.399 Y102.178 E.91292
G1 X97.727 Y101.714 E.0884
G1 X99.66 Y101.586 E.07217
G1 X151.464 Y101.604 E1.92949
G1 X153.943 Y101.872 E.0929
G1 X156.355 Y102.526 E.09305
G1 X157.805 Y103.127 E.05846
G1 X159.968 Y104.367 E.09291
G1 X161.912 Y105.932 E.09294
G1 X163.587 Y107.781 E.09292
G1 X164.133 Y108.532 E.03457
G1 X165.373 Y110.695 E.09291
G1 X166.262 Y113.031 E.09306
G1 X166.773 Y115.472 E.09291
G1 X166.896 Y117.964 E.09291
G1 X166.628 Y120.443 E.0929
G1 X166.262 Y121.969 E.05845
G1 X165.373 Y124.305 E.09306
G1 X164.133 Y126.468 E.09291
G1 X162.568 Y128.412 E.09294
G1 X160.719 Y130.087 E.09292
G1 X159.968 Y130.633 E.03457
G1 X157.805 Y131.873 E.09291
G1 X155.469 Y132.762 E.09306
G1 X153.028 Y133.273 E.09291
G1 X151 Y133.414 E.07571
G1 X99.66 Y133.414 E1.91222
G1 X97.727 Y133.286 E.07217
G1 X95.073 Y132.738 E.10093
M73 P3 R14
G1 X72.36 Y126.182 E.88051
G1 X70.424 Y125.211 E.08067
G1 X68.968 Y123.607 E.08067
G1 X68.187 Y121.587 E.08067
G1 X68.086 Y120.5 E.04066
G1 X68.086 Y115.5 E.18623
G1 X68.482 Y113.371 E.08067
G1 X69.619 Y111.527 E.08067
G1 X71.746 Y110.14 E.09457
G1 X71.979 Y110.51
G1 X72.277 Y110.322 E.01313
G1 X94.99 Y102.766 E.89156
G1 X96.958 Y102.291 E.07537
G1 X99.66 Y102.043 E.10108
G1 X151.428 Y102.06 E1.92816
G1 X153.837 Y102.316 E.09023
G1 X156.179 Y102.948 E.09037
G1 X157.629 Y103.549 E.05846
G1 X159.73 Y104.757 E.09024
G1 X161.615 Y106.28 E.09027
G1 X163.239 Y108.078 E.09025
G1 X163.743 Y108.771 E.03189
G1 X164.951 Y110.871 E.09024
G1 X165.818 Y113.137 E.09038
G1 X166.317 Y115.508 E.09025
G1 X166.44 Y117.928 E.09024
G1 X166.184 Y120.337 E.09023
G1 X165.818 Y121.863 E.05845
G1 X164.951 Y124.129 E.09038
G1 X163.743 Y126.229 E.09024
G1 X163.239 Y126.922 E.03189
G1 X162.22 Y128.115 E.05844
G1 X160.422 Y129.739 E.09025
G1 X158.391 Y131.063 E.09028
G1 X156.179 Y132.052 E.09025
G1 X153.837 Y132.684 E.09037
G1 X152.992 Y132.817 E.03186
G1 X151 Y132.957 E.07437
G1 X99.66 Y132.957 E1.91222
G1 X97.761 Y132.83 E.07089
G1 X95.2 Y132.299 E.09743
G1 X72.487 Y125.743 E.88051
G1 X70.635 Y124.796 E.07747
G1 X69.272 Y123.225 E.07747
G1 X68.543 Y120.5 E.10507
G1 X68.543 Y115.5 E.18623
G1 X68.939 Y113.458 E.07747
G1 X70.071 Y111.713 E.07747
G1 X71.945 Y110.531 E.08254
; printing object SC_BASE id:0 copy 0
G1 E-4.2 F3600
EXCLUDE_OBJECT_START NAME=SC_BASE_id_0_copy_0
G1 X79.486 Y111.708 Z.6 F3000
G1 X91.263 Y113.547 Z.6
G1 Z.2
G1 E4.2 F3600
;TYPE:Inner wall
;WIDTH:0.407405
G1 F2100
G1 X91.308 Y113.534 E.00138
;WIDTH:0.453702
G1 X91.51 Y113.479 E.00702
;WIDTH:0.499999
G1 X91.712 Y113.424 E.00781
G1 X91.956 Y113.164 E.01326
G1 X92.755 Y111.993 E.0528
G1 X93.653 Y111.025 E.04918
G1 X94.685 Y110.202 E.04915
G1 X95.828 Y109.542 E.04917
G1 X97.057 Y109.06 E.04917
G1 X98.344 Y108.766 E.04917
G1 X99.704 Y108.664 E.05079
G1 X150.954 Y108.664 E1.90889
M73 P3 R13
G1 X152.332 Y108.773 E.05148
G1 X153.732 Y109.101 E.05354
G1 X155.01 Y109.63 E.05152
G1 X156.192 Y110.355 E.05163
G1 X157.245 Y111.255 E.05161
G1 X158.145 Y112.308 E.05161
G1 X158.87 Y113.49 E.05163
G1 X159.4 Y114.771 E.05163
G1 X159.724 Y116.119 E.05162
G1 X159.832 Y117.5 E.05161
G1 X159.724 Y118.881 E.05161
G1 X159.4 Y120.229 E.05162
G1 X158.87 Y121.51 E.05163
G1 X158.145 Y122.692 E.05163
G1 X157.245 Y123.745 E.05161
G1 X156.192 Y124.645 E.05161
G1 X155.01 Y125.37 E.05163
G1 X153.729 Y125.9 E.05163
G1 X152.381 Y126.224 E.05162
G1 X150.954 Y126.336 E.05332
G1 X99.704 Y126.336 E1.90889
G1 X98.344 Y126.234 E.05079
M73 P4 R13
G1 X97.057 Y125.94 E.04917
G1 X95.828 Y125.458 E.04917
G1 X94.685 Y124.798 E.04917
G1 X93.653 Y123.975 E.04915
G1 X92.755 Y123.007 E.04918
G1 X91.956 Y121.836 E.0528
G1 X91.712 Y121.576 E.01326
G1 X91.511 Y121.521 E.00776
;WIDTH:0.453835
G1 X91.311 Y121.466 E.00698
;WIDTH:0.40767
G1 X91.11 Y121.411 E.00619
;WIDTH:0.361505
G1 X90.901 Y121.397 E.00542
;WIDTH:0.352537
G1 X90.204 Y121.314 E.01771
;WIDTH:0.373692
G1 X89.655 Y121.153 E.01542
G1 X88.948 Y120.813 E.02114
;WIDTH:0.373833
G1 X88.486 Y120.473 E.01547
G1 X87.939 Y119.912 E.02114
G1 X87.621 Y119.434 E.01547
G1 X87.299 Y118.72 E.02113
G1 X87.163 Y118.161 E.0155
G1 X87.105 Y117.38 E.02113
G1 X87.168 Y116.81 E.01545
G1 X87.381 Y116.056 E.02114
G1 X87.636 Y115.541 E.01549
G1 X88.094 Y114.904 E.02114
G1 X88.508 Y114.508 E.01546
G1 X89.157 Y114.067 E.02116
;WIDTH:0.373691
G1 X89.682 Y113.837 E.01544
G1 X90.441 Y113.644 E.02111
;WIDTH:0.361107
G1 X91.106 Y113.59 E.01729
;WIDTH:0.407405
G1 X91.263 Y113.547 E.00484
G1 X90.978 Y113.91 F3000
;WIDTH:0.361107
G1 F2100
G1 X91.107 Y113.907 E.00334
;WIDTH:0.407405
G1 X91.309 Y113.961 E.00623
;WIDTH:0.453702
G1 X91.512 Y114.014 E.00702
;WIDTH:0.499999
G1 X91.715 Y114.068 E.00781
G1 X91.961 Y114.326 E.01326
G1 X92.136 Y114.725 E.01625
G1 X92.164 Y115.403 E.02526
G1 X92.136 Y120.275 E.18148
G1 X91.961 Y120.674 E.01625
G1 X91.715 Y120.932 E.01326
G1 X91.513 Y120.986 E.00776
;WIDTH:0.453835
G1 X91.312 Y121.039 E.00698
;WIDTH:0.40767
G1 X91.111 Y121.093 E.00619
;WIDTH:0.361505
G1 X90.468 Y121.048 E.01673
;WIDTH:0.373692
G1 X89.288 Y120.653 E.03355
;WIDTH:0.373833
G1 X88.312 Y119.877 E.03361
G1 X87.915 Y119.282 E.0193
G1 X87.662 Y118.814 E.01434
G1 X87.413 Y117.593 E.03359
G1 X87.598 Y116.36 E.03361
G1 X87.915 Y115.718 E.0193
G1 X88.193 Y115.266 E.01432
G1 X89.126 Y114.441 E.03359
;WIDTH:0.373691
G1 X90.284 Y113.985 E.03355
;WIDTH:0.352537
G1 X90.928 Y113.912 E.01635
;WIDTH:0.361107
G1 X90.978 Y113.91 E.0013
G1 X90.967 Y114.301 F3000
;WIDTH:0.499999
G1 F2100
G1 X91.076 Y114.293 E.00406
G1 X91.437 Y114.432 E.01441
G1 X91.585 Y114.586 E.00796
G1 X91.705 Y114.922 E.01329
G1 X91.69 Y120.174 E.19563
G1 X91.437 Y120.568 E.01744
G1 X91.076 Y120.707 E.01441
G1 X90.502 Y120.666 E.02145
G1 X89.396 Y120.278 E.04364
G1 X88.543 Y119.562 E.04148
G1 X87.986 Y118.597 E.04149
G1 X87.793 Y117.5 E.04149
G1 X87.986 Y116.403 E.04149
G1 X88.543 Y115.438 E.04149
G1 X89.396 Y114.722 E.04148
G1 X90.443 Y114.342 E.04149
G1 X90.967 Y114.301 E.01959
G1 X91.002 Y114.749 F3000
;TYPE:Outer wall
G1 F2100
G1 X91.16 Y114.795 E.00615
G1 X91.249 Y114.958 E.00694
G1 X91.25 Y120.023 E.18865
G1 X91.209 Y120.154 E.00508
G1 X91.04 Y120.251 E.00729
G1 X90.522 Y120.208 E.01935
G1 X89.661 Y119.899 E.03408
G1 X88.921 Y119.296 E.03553
G1 X88.405 Y118.402 E.03844
G1 X88.253 Y117.54 E.03262
G1 X88.433 Y116.523 E.03844
G1 X88.87 Y115.765 E.03262
G1 X89.661 Y115.101 E.03844
G1 X90.483 Y114.802 E.03259
G1 X91.002 Y114.749 E.01941
G1 E-4.2 F3600
G1 X91.183 Y113.16 Z.6 F3000
G1 Z.2
G1 E4.2 F3600
;TYPE:Inner wall
G1 F2100
G1 X91.432 Y113.062 E.00998
G1 X92.396 Y111.707 E.06195
G1 X93.341 Y110.689 E.05174
G1 X94.427 Y109.824 E.05169
G1 X95.629 Y109.129 E.05172
G1 X96.922 Y108.622 E.05173
G1 X98.276 Y108.313 E.05172
G1 X99.687 Y108.207 E.0527
G1 X150.972 Y108.207 E1.91019
G1 X152.403 Y108.32 E.05345
G1 X153.872 Y108.664 E.05623
G1 X155.218 Y109.222 E.05425
G1 X156.461 Y109.984 E.05431
G1 X157.569 Y110.931 E.05429
G1 X158.516 Y112.039 E.05429
G1 X159.278 Y113.282 E.05431
G1 X159.836 Y114.629 E.05431
G1 X160.176 Y116.047 E.0543
G1 X160.291 Y117.5 E.05429
G1 X160.176 Y118.953 E.05429
G1 X159.836 Y120.371 E.0543
G1 X159.278 Y121.718 E.05431
G1 X158.516 Y122.961 E.05431
G1 X157.569 Y124.069 E.05429
G1 X156.461 Y125.016 E.05429
G1 X155.218 Y125.778 E.05431
G1 X153.871 Y126.336 E.05431
G1 X152.453 Y126.676 E.0543
G1 X150.972 Y126.793 E.05533
G1 X99.687 Y126.793 E1.91019
G1 X98.276 Y126.687 E.0527
G1 X96.922 Y126.378 E.05172
G1 X95.629 Y125.871 E.05173
G1 X94.427 Y125.176 E.05172
G1 X93.341 Y124.311 E.05169
G1 X92.396 Y123.293 E.05174
G1 X91.432 Y121.938 E.06195
G1 X91.074 Y121.797 E.01432
G1 X90.255 Y121.725 E.03062
G1 X89.533 Y121.531 E.02787
G1 X88.855 Y121.215 E.02786
G1 X88.242 Y120.786 E.02785
G1 X87.714 Y120.258 E.02784
G1 X87.285 Y119.645 E.02785
G1 X86.969 Y118.967 E.02786
G1 X86.775 Y118.245 E.02787
G1 X86.71 Y117.5 E.02784
G1 X86.775 Y116.755 E.02784
G1 X86.969 Y116.033 E.02787
G1 X87.285 Y115.355 E.02786
G1 X87.714 Y114.742 E.02785
G1 X88.242 Y114.214 E.02784
G1 X88.855 Y113.785 E.02785
G1 X89.533 Y113.469 E.02786
G1 X90.255 Y113.275 E.02787
G1 X91.072 Y113.203 E.03052
G1 X91.183 Y113.16 E.00443
G1 X91.037 Y112.745 F3000
;TYPE:Outer wall
G1 F2100
G1 X91.201 Y112.649 E.00708
G1 X92.038 Y111.421 E.05535
G1 X93.029 Y110.353 E.05429
G1 X94.168 Y109.445 E.05424
G1 X95.43 Y108.716 E.05427
G1 X96.787 Y108.184 E.05429
G1 X98.207 Y107.86 E.05427
G1 X99.669 Y107.75 E.05461
G1 X150.99 Y107.75 E1.9115
M73 P5 R13
G1 X152.473 Y107.867 E.05541
G1 X154.013 Y108.228 E.05891
G1 X155.426 Y108.813 E.05697
G1 X156.731 Y109.613 E.05699
G1 X157.894 Y110.606 E.05697
G1 X158.887 Y111.769 E.05697
G1 X159.687 Y113.074 E.05699
G1 X160.272 Y114.487 E.05699
G1 X160.629 Y115.975 E.05698
G1 X160.749 Y117.5 E.05697
G1 X160.629 Y119.025 E.05697
G1 X160.272 Y120.513 E.05698
G1 X159.687 Y121.926 E.057
G1 X158.887 Y123.231 E.05698
G1 X157.894 Y124.394 E.05697
G1 X156.731 Y125.387 E.05697
G1 X155.426 Y126.187 E.05699
G1 X154.013 Y126.772 E.05699
G1 X152.525 Y127.129 E.05698
G1 X150.99 Y127.25 E.05734
G1 X99.669 Y127.25 E1.9115
G1 X98.207 Y127.14 E.05461
G1 X96.787 Y126.816 E.05427
G1 X95.43 Y126.284 E.05429
G1 X94.168 Y125.555 E.05427
G1 X93.029 Y124.647 E.05424
G1 X92.038 Y123.579 E.05429
G1 X91.201 Y122.351 E.05535
G1 X91.033 Y122.252 E.00726
G1 X90.176 Y122.177 E.03205
G1 X89.376 Y121.962 E.03084
G1 X88.625 Y121.613 E.03083
G1 X87.947 Y121.138 E.03084
G1 X87.362 Y120.553 E.03082
G1 X86.887 Y119.875 E.03084
G1 X86.538 Y119.124 E.03083
G1 X86.323 Y118.324 E.03084
G1 X86.251 Y117.5 E.03082
G1 X86.323 Y116.676 E.03082
G1 X86.538 Y115.876 E.03084
G1 X86.887 Y115.125 E.03083
G1 X87.362 Y114.447 E.03084
G1 X87.947 Y113.862 E.03082
G1 X88.625 Y113.387 E.03083
G1 X89.376 Y113.038 E.03083
G1 X90.176 Y112.823 E.03084
G1 X91.032 Y112.748 E.03202
G1 X91.037 Y112.745 E.00021
G1 E-4.2 F3600
G1 X98.669 Y112.746 Z.6 F3000
G1 X158.257 Y112.754 Z.6
G1 Z.2
G1 E4.2 F3600
;TYPE:Bottom surface
;WIDTH:0.502168
G1 F2100
G1 X156.998 Y111.494 E.06665
G1 X155.989 Y110.633 E.04964
G1 X154.747 Y109.892 E.05414
G1 X158.608 Y113.753 E.20434
G1 X159.067 Y114.863 E.04494
G1 X153.637 Y109.433 E.28738
G1 X152.786 Y109.231 E.03273
G1 X159.276 Y115.72 E.34344
G1 X159.41 Y116.504 E.02977
G1 X152.001 Y109.095 E.39214
G1 X151.308 Y109.051 E.02599
G1 X159.466 Y117.209 E.43175
G1 X159.461 Y117.854 E.02412
G1 X150.614 Y109.008 E.46817
G1 X149.964 Y109.007 E.02433
G1 X159.413 Y118.456 E.50008
G1 X159.336 Y119.028 E.02161
G1 X149.315 Y109.007 E.53036
G1 X148.665 Y109.007 E.02431
M73 P6 R13
G1 X159.21 Y119.552 E.55808
G1 X159.085 Y120.076 E.02016
G1 X148.016 Y109.007 E.5858
G1 X147.366 Y109.007 E.02431
G1 X158.9 Y120.541 E.61041
G1 X158.71 Y121 E.0186
G1 X146.717 Y109.007 E.63471
G1 X146.067 Y109.007 E.02431
G1 X158.507 Y121.446 E.65833
G1 X158.26 Y121.849 E.01767
G1 X145.418 Y109.007 E.67964
G1 X144.768 Y109.007 E.02431
G1 X158.013 Y122.251 E.70095
G1 X157.745 Y122.633 E.01744
G1 X144.119 Y109.007 E.72113
G1 X143.47 Y109.007 E.02431
G1 X157.446 Y122.983 E.73967
G1 X157.146 Y123.333 E.01724
G1 X142.82 Y109.007 E.7582
G1 X142.171 Y109.007 E.02431
G1 X156.821 Y123.657 E.77534
G1 X156.47 Y123.956 E.01724
G1 X141.521 Y109.007 E.79118
G1 X140.872 Y109.007 E.02431
G1 X156.12 Y124.255 E.80701
G1 X155.737 Y124.522 E.01746
G1 X140.222 Y109.007 E.82111
G1 X139.573 Y109.007 E.02431
G1 X155.334 Y124.769 E.83417
G1 X154.932 Y125.015 E.01767
G1 X138.923 Y109.007 E.84723
G1 X138.274 Y109.007 E.02431
M73 P7 R13
G1 X154.483 Y125.217 E.85788
G1 X154.024 Y125.407 E.0186
G1 X137.624 Y109.007 E.86795
G1 X136.975 Y109.007 E.02431
G1 X153.557 Y125.589 E.8776
G1 X153.033 Y125.715 E.02016
G1 X136.325 Y109.007 E.88424
G1 X135.676 Y109.007 E.02431
G1 X152.509 Y125.84 E.89089
G1 X152.328 Y125.884 E.00699
G1 X151.934 Y125.915 E.01477
G1 X135.026 Y109.007 E.89484
G1 X134.377 Y109.007 E.02431
G1 X151.332 Y125.962 E.89734
G1 X150.713 Y125.993 E.02318
G1 X133.727 Y109.007 E.89897
G1 X133.078 Y109.007 E.02431
G1 X150.064 Y125.993 E.89897
G1 X149.415 Y125.993 E.02431
G1 X132.428 Y109.007 E.89897
G1 X131.779 Y109.007 E.02431
G1 X148.765 Y125.993 E.89897
G1 X148.116 Y125.993 E.02431
G1 X131.13 Y109.007 E.89897
G1 X130.48 Y109.007 E.02431
M73 P8 R13
G1 X147.466 Y125.993 E.89897
G1 X146.817 Y125.993 E.02431
G1 X129.831 Y109.007 E.89897
G1 X129.181 Y109.007 E.02431
G1 X146.167 Y125.993 E.89897
G1 X145.518 Y125.993 E.02431
G1 X128.532 Y109.007 E.89897
G1 X127.882 Y109.007 E.02431
G1 X144.868 Y125.993 E.89897
G1 X144.219 Y125.993 E.02431
G1 X127.233 Y109.007 E.89897
G1 X126.583 Y109.007 E.02431
G1 X143.569 Y125.993 E.89897
G1 X142.92 Y125.993 E.02431
G1 X125.934 Y109.007 E.89897
G1 X125.284 Y109.007 E.02431
G1 X142.27 Y125.993 E.89897
G1 X141.621 Y125.993 E.02431
G1 X124.635 Y109.007 E.89897
G1 X123.985 Y109.007 E.02431
G1 X140.971 Y125.993 E.89897
G1 X140.322 Y125.993 E.02431
G1 X123.336 Y109.007 E.89897
G1 X122.686 Y109.007 E.02431
G1 X139.672 Y125.993 E.89897
G1 X139.023 Y125.993 E.02431
M73 P9 R13
G1 X122.037 Y109.007 E.89897
G1 X121.387 Y109.007 E.02431
G1 X138.373 Y125.993 E.89897
G1 X137.724 Y125.993 E.02431
G1 X120.738 Y109.007 E.89897
G1 X120.088 Y109.007 E.02431
G1 X137.075 Y125.993 E.89897
G1 X136.425 Y125.993 E.02431
G1 X119.439 Y109.007 E.89897
G1 X118.789 Y109.007 E.02431
G1 X135.776 Y125.993 E.89897
G1 X135.126 Y125.993 E.02431
G1 X118.14 Y109.007 E.89897
G1 X117.491 Y109.007 E.02431
G1 X134.477 Y125.993 E.89897
G1 X133.827 Y125.993 E.02431
G1 X116.841 Y109.007 E.89897
G1 X116.192 Y109.007 E.02431
G1 X133.178 Y125.993 E.89897
G1 X132.528 Y125.993 E.02431
G1 X115.542 Y109.007 E.89897
G1 X114.893 Y109.007 E.02431
G1 X131.879 Y125.993 E.89897
G1 X131.229 Y125.993 E.02431
M73 P10 R13
G1 X114.243 Y109.007 E.89897
G1 X113.594 Y109.007 E.02431
G1 X130.58 Y125.993 E.89897
G1 X129.93 Y125.993 E.02431
G1 X112.944 Y109.007 E.89897
